!!!OTL: Fruehlingssieg.
!!!OTL-incipit: TRARIRO DER SUMMER ISCH DO
!!!ARE: Europa, Mitteleuropa, Deutschland, Franken
!!!SCT: Z1259
!!!YEM: Copyright 1995, estate of Helmut Schaffrath.
**kern	**text
*ICvox	*
*M2/4	*
*k[b-e-]	*
*B-:	*
=1	=1
!LO:TX:a:t=Aus Franken.	!
{4b-/	Tra
4dd/	ri
=2	=2
4cc/	ro!
8r}	.
{8f	der
=3	=3
8g	Summer
8f	.
8g	der
8a	iſch
=4	=4
4.b-/}	do!
{8f	wir
=5	=5
8f	wol-
8dd	-len
8dd	'naus
8cc	in
=6	=6
8b-L	Gar-
8fJ	.
8f}	-ten,
{8f	und
=7	=7
8g	woll'n
8a	des
8b-/	Summers
8cc	.
=8	=8
4f	war-
8f}	-ten!
{8f	wir
=9	=9
8f	wol-
8dd	-len
8dd	'naus
8cc	in
=10	=10
8b-L	Gar-
8fJ	.
8f}	-ten,
{8f	und
=11	=11
8g	woll'n
8a	des
8b-/	Summers
8cc	.
=12	=12
4f	war-
8f	-ten!
8r}	.
=13	=13
{4b-/	jo
4dd/	jo
=14	=14
4ff/	jo!
8r}	.
{8b-/	der
=15	=15
16b-/L	Summer
16aJ	.
16b-/L	.
16ccJ	.
8dd/	der
8cc/	iſch
=16	=16
4b-/	do!
4r}	.
==	==
!!!AGN: Natur und Welt, Brauchtums - Lied
!!!ONB: ESAC (Essen Associative Code) Database: ZUCCAL
!!!AMT: simple duple
!!!AIN: vox
!!!EED: Helmut Schaffrath
!!!EEV: 1.0
!!!GTL: VI. Natur und Welt.
!!!URL-scan: https://www.digitale-sammlungen.de/de/view/bsb11160573?page=481
!!!ENC: Anna Maria Matuszewska
!!!EEV: 2025/02/06
*-	*-
